brandFactory_export/2.Regular/Grua_2Regular.svg

<?xml version="1.0" encoding="UTF-8"?>
<svg width="24px" height="24px" viewBox="0 0 24 24" version="1.1" xmlns="http://www.w3.org/2000/svg" xmlns:xlink="http://www.w3.org/1999/xlink">
    <title>2.Regular/Grua_2Regular</title>
    <g id="Symbols" stroke="none" stroke-width="1" fill="none" fill-rule="evenodd">
        <g id="2.Regular/Grua_2Regular" fill="#5CB615" fill-rule="nonzero">
            <path d="M22.1781513,16.9798319 C22.1781513,17.2890756 22.0302521,17.6151261 21.7680672,17.8739496 C21.5193277,18.1193277 21.2134454,18.2605042 20.9176471,18.2739496 C20.9210084,18.1865546 20.9378151,18.1058824 20.9378151,18.0151261 C20.9378151,15.7260504 19.5092437,14.307563 17.2134454,14.307563 C14.9176471,14.307563 13.4890756,15.7294118 13.4890756,18.0151261 C13.4890756,18.1092437 13.5058824,18.189916 13.5092437,18.2773109 L9.51260504,18.2773109 C9.51596639,18.189916 9.53277311,18.1058824 9.53277311,18.0151261 C9.53277311,15.7260504 8.10420168,14.307563 5.80840336,14.307563 C3.51260504,14.307563 2.08403361,15.7294118 2.08403361,18.0151261 L2.08403361,18.0218487 C2.00672269,17.9714286 1.91932773,17.9378151 1.85210084,17.8705882 C1.58991597,17.6117647 1.44201681,17.2857143 1.44201681,16.9764706 L1.44201681,12.4184874 L11.005042,12.4184874 C11.405042,12.4184874 11.7277311,12.0957983 11.7277311,11.6991597 L11.7277311,5.65210084 L16.1680672,5.65210084 C16.6621849,5.65210084 17.2033613,5.9210084 17.4823529,6.30756303 C18.0168067,7.04033613 21.1092437,11.1310924 21.5159664,11.6521008 C21.7647059,11.9747899 22.1781513,12.512605 22.1781513,12.9663866 L22.1781513,16.9798319 L22.1781513,16.9798319 Z M17.2168067,20.287395 C15.707563,20.287395 14.9411765,19.5243697 14.9411765,18.0184874 C14.9411765,16.512605 15.707563,15.7495798 17.2168067,15.7495798 C18.7260504,15.7495798 19.4957983,16.512605 19.4957983,18.0184874 C19.4957983,19.5243697 18.7260504,20.287395 17.2168067,20.287395 L17.2168067,20.287395 Z M5.81176471,20.287395 C4.30252101,20.287395 3.53613445,19.5243697 3.53613445,18.0184874 C3.53613445,16.512605 4.30252101,15.7495798 5.81176471,15.7495798 C7.3210084,15.7495798 8.08740597,16.512605 8.08740597,18.0184874 C8.0907563,19.5243697 7.32436975,20.287395 5.81176471,20.287395 Z M4.26890756,4.47563025 L8.74957983,10.9663866 L7.31092437,10.9630252 L4.08739496,4.47226891 C4.0907563,4.47226891 4.26890756,4.47563025 4.26890756,4.47563025 Z M22.6621849,10.7747899 C22.2588235,10.2537815 19.1865546,6.18991597 18.6621849,5.46386555 C18.1109244,4.70084034 17.1361345,4.21008403 16.1747899,4.21008403 L11.0117647,4.21008403 C10.6117647,4.21008403 10.2890756,4.53277311 10.2890756,4.92941176 L10.2890756,10.6436975 L5.25042017,3.34957983 C5.11596639,3.15462185 4.89747899,3.03697479 4.65882353,3.03697479 L2.92773109,3.02352941 L2.9210084,3.02352941 C2.85378151,3.02352941 2.79663866,3.05378151 2.73277311,3.07058824 C2.6789916,3.08067227 2.62521008,3.08739496 2.57478992,3.11092437 C2.57142857,3.11092437 2.56806723,3.11428571 2.56134454,3.11764706 C2.31260504,3.23529412 2.1512605,3.48403361 2.1512605,3.75630252 L2.14453782,8.79159664 C2.14789916,8.84201681 2.13109244,9.06722689 2.04369748,9.16470588 C2.00336134,9.20840336 1.92268908,9.22857143 1.80504202,9.23193277 C1.6907563,9.19495798 1.59327731,9.22184874 1.5394958,9.16470588 C1.46218487,9.08067227 1.43865546,8.86890756 1.4487395,8.75462185 C1.49579832,8.35798319 1.21008403,7.99831933 0.813445378,7.9512605 C0.416806723,7.90420168 0.0571428571,8.18991597 0.0100840336,8.58655462 C7.34631177e-05,8.68403361 -0.0806722689,9.52436975 0.460504202,10.1260504 C0.685714286,10.3747899 1.09915966,10.6739496 1.79831933,10.6739496 L1.81512605,10.6739496 C2.48067227,10.6705882 2.88403361,10.3815126 3.10588235,10.1428571 C3.63697479,9.57142857 3.59327731,8.77815126 3.58655462,8.74453782 L3.58991597,6.71428571 L5.70756303,10.9764706 L0.72605042,10.9764706 C0.32605042,10.9764706 0.00336134454,11.2991597 0.00336134454,11.6957983 L0.00336134454,16.9764706 C0.00336134454,17.6655462 0.305882353,18.3613445 0.83697479,18.8890756 C1.26386555,19.312605 1.79831933,19.5747899 2.40336134,19.6722689 C2.93781513,20.9630252 4.14117647,21.7226891 5.81176471,21.7226891 C7.46218487,21.7226891 8.65210084,20.9798319 9.19663866,19.7159664 L13.8319328,19.7159664 C14.3764706,20.9798319 15.5663866,21.7226891 17.2168067,21.7226891 C18.8672269,21.7226891 20.0571429,20.9798319 20.6016807,19.7159664 L20.8705882,19.7159664 C21.5596639,19.7159664 22.2588235,19.4134454 22.789916,18.8857143 C23.3210084,18.3579832 23.6235294,17.6621849 23.6235294,16.9731092 L23.6235294,12.9697479 C23.6235294,12.0218487 22.994958,11.2117647 22.6621849,10.7747899 Z" id="Grua_2Regular"></path>
        </g>
    </g>
</svg>

<svg width="24" height="24" viewBox="0 0 24 24" xmlns="http://www.w3.org/2000/svg"><path d="M22.178 16.98c0 .31-.148.635-.41.894-.249.245-.555.387-.85.4.003-.087.02-.168.02-.259 0-2.289-1.429-3.707-3.725-3.707-2.295 0-3.724 1.421-3.724 3.707 0 .094.017.175.02.262H9.513c.003-.087.02-.171.02-.262 0-2.289-1.429-3.707-3.725-3.707-2.295 0-3.724 1.421-3.724 3.707v.007c-.077-.05-.165-.084-.232-.151-.262-.26-.41-.585-.41-.895v-4.558h9.563a.72.72 0 00.723-.719V5.652h4.44c.494 0 1.035.269 1.314.656.535.732 3.627 4.823 4.034 5.344.249.323.662.86.662 1.314v4.014zm-4.961 3.307c-1.51 0-2.276-.763-2.276-2.269 0-1.505.767-2.268 2.276-2.268 1.51 0 2.279.763 2.279 2.268 0 1.506-.77 2.27-2.28 2.27zm-11.405 0c-1.51 0-2.276-.763-2.276-2.269 0-1.505.767-2.268 2.276-2.268s2.275.763 2.275 2.268c.004 1.506-.763 2.27-2.275 2.27zM4.269 4.476l4.48 6.49-1.438-.003-3.224-6.49.182.003zm18.393 6.299a551.557 551.557 0 01-4-5.311c-.551-.763-1.526-1.254-2.487-1.254h-5.163a.72.72 0 00-.723.72v5.714L5.25 3.35a.717.717 0 00-.591-.313l-1.731-.013H2.92c-.067 0-.124.03-.188.047-.054.01-.108.016-.158.04-.004 0-.007.003-.014.007a.71.71 0 00-.41.638l-.006 5.036c.003.05-.014.275-.101.373-.04.043-.121.064-.239.067-.114-.037-.212-.01-.266-.067-.077-.084-.1-.296-.09-.41A.725.725 0 00.01 8.587c-.01.097-.09.937.45 1.54.226.248.64.547 1.338.547h.017c.666-.003 1.069-.292 1.29-.531.532-.572.488-1.365.482-1.398l.003-2.03 2.118 4.261H.726a.72.72 0 00-.723.72v5.28c0 .69.303 1.385.834 1.913.427.424.961.686 1.566.783.535 1.291 1.738 2.05 3.409 2.05 1.65 0 2.84-.742 3.385-2.006h4.635c.544 1.264 1.734 2.007 3.385 2.007 1.65 0 2.84-.743 3.385-2.007h.269c.689 0 1.388-.303 1.919-.83.531-.528.834-1.224.834-1.913V12.97c0-.948-.629-1.758-.962-2.195z" fill="#5CB615" fill-rule="nonzero"/></svg>
